bvlgari.svg

<svg stroke-miterlimit="10" style="fill-rule:nonzero;clip-rule:evenodd;stroke-linecap:round;stroke-linejoin:round" viewBox="0 0 1024 1024" xml:space="preserve" xmlns="http://www.w3.org/2000/svg" xmlns:vectornator="http://vectornator.io"><defs><filter color-interpolation-filters="sRGB" filterUnits="userSpaceOnUse" height="126.378" id="a" width="654.56" x="195.584" y="459.675"><feDropShadow dx="12.728" dy="12.728" flood-color="#fff" flood-opacity="1" in="SourceGraphic" result="Shadow" stdDeviation="4.5"/></filter></defs><g filter="url(#a)" vectornator:shadowAngle=".785" vectornator:shadowColor="#ffffff" vectornator:shadowOffset="18" vectornator:shadowOpacity="1" vectornator:shadowRadius="9" fill-rule="evenodd" vectornator:layerName="Untitled"><path d="M717.259 492.373c7.04.591 8.732 2.452 11.465 6.697l5.815 10.583c3.036 4.368 5.596 6.716 11.541 6.716v1.602h-7.288c-3.295 0-9.614.407-13.143-3.914l-7.594-12.531c-2.665-3.694-3.468-6.69-12.318-6.69h-13.791l.014 16.888c0 2.988 1.311 4.126 3.745 4.126h1.328v2.121h-20.207v-2.121h1.321c2.431 0 3.745-1.138 3.745-4.126v-44.535c0-2.992-1.314-4.134-3.745-4.134h-1.321v-2.117h33.692c19.556 0 25.019 8.005 25.019 15.703 0 8.739-6.892 13.856-18.278 15.732m-25.313-26.797v23.517l15.141.01c11.976 0 17.608-4.472 17.608-11.897 0-7.291-5.484-11.63-17.911-11.63h-14.838ZM800.207 467.196c0-3 1.304-4.134 3.745-4.134h1.329v-2.117h-20.226v2.117h1.325c2.438 0 3.749 1.134 3.749 4.134v44.527c0 2.989-1.311 4.127-3.749 4.127h-1.325v2.121h20.226v-2.121h-1.329c-2.434 0-3.745-1.138-3.745-4.127v-44.527ZM231.617 490.736c12.524 0 17.752 5.121 17.752 11.282 0 5.736-3.81 9.585-18.058 9.585h-20.578v-20.867h20.884Zm-20.884-24.802h16.786c12.564 0 16.787 2.726 16.787 8.714 0 6.057-3.669 10.691-17.374 10.691l-16.257-.004.058-19.401Zm-10.075 45.788c0 2.988-1.315 4.13-3.749 4.13h-1.325v2.117h39.947c15.937 0 25.054-5.167 25.054-16.103 0-8.195-5.163-13.128-18.004-14.698 6.205-1.62 11.703-5.923 11.703-12.596 0-9.689-9.672-13.632-22.512-13.632h-36.188v2.117h1.325c2.434 0 3.749 1.142 3.749 4.134v44.531ZM410.449 460.939v2.117h-1.325c-2.431 0-3.745 1.141-3.745 4.133l.007 44.459 28.842.008c4.753-.198 8.487-2.708 10.651-6.147l1.981.745L440.969 518l-50.681-.029v-2.121h1.325c2.434 0 3.745-1.137 3.745-4.126v-44.535c0-2.992-1.311-4.133-3.745-4.133h-1.325v-2.117h20.161ZM357.835 460.945v2.118h-1.325c-2.964 0-3.302 1.548-4.602 3.957l-26.113 50.951h-8.372l-26.408-50.937c-1.304-2.412-1.653-3.971-4.62-3.971h-1.318v-2.118l20.921-.007v2.117h-1.315c-2.79 0-3.874 1.909-2.592 4.455l21.381 41.167 21.076-41.167c1.285-2.546.212-4.455-2.578-4.455h-1.318v-2.117l17.183.007ZM546.788 490.851v2.117h-2.326c-2.427 0-3.738 1.138-3.738 4.137l.004 10.565c-3.561 5.93-14.936 12.275-32.299 12.275-24.612 0-40.297-13.607-40.297-30.387 0-13.86 14.76-29.883 39.904-29.883 14.195 0 24.565 4.955 27.449 6.863 0 .209 3.057 12.711 3.05 12.736-.007.029-2.175.81-2.175.81-.014.007-6.578-15.66-27.11-15.728-17.705-.065-29.779 12.74-29.779 25.234 0 13.788 11.901 25.141 29.779 25.076 11.169-.047 21.749-5.822 21.716-10.014l.025-7.547c0-2.999-1.303-4.137-3.741-4.137h-2.315v-2.117h21.853ZM644.488 515.85v2.121h-21.13v-2.121h1.322c2.783 0 3.863-1.894 2.571-4.436l-4.937-8.786h-33.595l-4.577 8.786c-1.286 2.542-.22 4.436 2.571 4.436h1.314l-.011 2.121h-17.499v-2.121h1.314c2.081 0 3.053-.756 4.245-2.985l27.348-51.872h7.684l27.233 50.846c.212.364.396.706.59 1.019 1.185 2.233 2.154 2.992 4.228 2.992h1.329Zm-25.231-19.573-13.827-26.733-.018.04-13.381 26.693h27.226ZM264.262 564.071h-2.809v-8.512H250.51v8.512h-2.812v-19.545h2.812v8.512h10.943v-8.512h2.809v19.545ZM284.917 554.299c0 5.3 4.04 10.024 10.428 10.024 6.618 0 10.575-4.756 10.575-10.024 0-5.445-4.069-10.025-10.514-10.025-6.337 0-10.489 4.609-10.489 10.025m2.895 0c0-4.3 3.237-7.447 7.594-7.447 4.379 0 7.623 3.147 7.623 7.447 0 4.27-3.244 7.446-7.623 7.446-4.357 0-7.594-3.176-7.594-7.446M339.342 547.048h-6.763v17.024h-2.808v-17.024h-6.766v-2.521h16.337v2.521ZM370.254 547.048h-8.278v5.901h7.994v2.521h-7.994v6.078h8.534v2.524h-11.346v-19.545h11.09v2.521ZM393.464 561.55h8.826v2.52h-11.631v-19.545h2.805v17.025ZM431.197 548.827c-1.66-1.573-3.266-2.034-4.584-2.034-1.807 0-3.096.943-3.096 2.319 0 3.752 8.451 3.698 8.451 9.916 0 3.065-2.316 5.297-5.47 5.297-2.124 0-3.835-.569-5.473-1.808v-3.55c1.437 1.833 3.244 2.837 5.156 2.837 2.179 0 3.187-1.375 3.187-2.462 0-4.044-8.451-4.498-8.451-9.856 0-3.183 2.344-5.214 5.93-5.214 1.484 0 2.971.458 4.35 1.369v3.186ZM481.988 549.14c0-1.058.918-1.869 2.124-1.869 1.29 0 2.233.865 2.233 2.013 0 1.005-.457 1.858-2.549 3.183-.832-.806-1.808-2.124-1.808-3.327m8.228 5.214c-.429.972-1.289 2.351-2.092 3.151l-2.755-3.151c2.524-1.775 3.586-3.32 3.586-5.214 0-2.376-1.944-4.242-4.699-4.242-3.039 0-5.012 1.779-5.012 4.498 0 1.667 1.055 3.331 2.207 4.53-2.725 1.577-4.612 3.41-4.612 5.757 0 2.607 2.258 4.642 4.926 4.642 1.775 0 3.752-.713 6.186-2.924l2.236 2.668h3.608l-3.95-4.591c1.455-1.631 2.636-3.547 3.179-5.124h-2.808Zm-3.983 5.102c-1.343 1.344-2.751 2.291-4.184 2.291-1.26 0-2.319-.947-2.405-2.064 0-1.516 1.228-2.52 3.406-3.896l3.183 3.669ZM539.291 544.526v19.546h2.808v-8.484h1.171c1.433 0 2.61.457 5.192 4.465l2.571 4.019h3.352c-1.339-1.866-1.822-2.521-2.661-3.871-1.483-2.434-2.574-4.242-4.357-5.416 2.096-.828 3.266-2.52 3.266-4.785 0-3.381-2.459-5.474-6.413-5.474h-4.929Zm2.808 2.406h1.804c2.723 0 3.814 1.12 3.843 2.952.025 1.632-.839 3.18-3.843 3.18h-1.804v-6.132ZM584.821 547.048h-8.281v5.901h7.993v2.521h-7.993v6.078h8.533v2.524h-11.338v-19.545h11.086v2.521ZM614.531 548.827c-1.656-1.573-3.269-2.034-4.584-2.034-1.804 0-3.093.943-3.093 2.319 0 3.752 8.455 3.698 8.455 9.916 0 3.065-2.33 5.297-5.477 5.297-2.117 0-3.835-.569-5.466-1.808v-3.55c1.426 1.833 3.23 2.837 5.146 2.837 2.182 0 3.186-1.375 3.186-2.462 0-4.044-8.451-4.498-8.451-9.856 0-3.183 2.352-5.214 5.931-5.214 1.487 0 2.978.458 4.353 1.369v3.186ZM634.705 554.299c0 5.3 4.04 10.024 10.428 10.024 6.618 0 10.575-4.756 10.575-10.024 0-5.445-4.076-10.025-10.518-10.025-6.333 0-10.485 4.609-10.485 10.025m2.895 0c0-4.3 3.233-7.447 7.59-7.447 4.386 0 7.623 3.147 7.623 7.447 0 4.27-3.237 7.446-7.623 7.446-4.357 0-7.59-3.176-7.59-7.446M676.388 544.526v19.546h2.812v-8.484h1.174c1.437 0 2.611.457 5.185 4.465l2.585 4.019h3.349c-1.35-1.866-1.836-2.521-2.664-3.871-1.488-2.434-2.582-4.242-4.357-5.416 2.092-.828 3.262-2.52 3.262-4.785 0-3.381-2.463-5.474-6.409-5.474h-4.937Zm2.812 2.406h1.804c2.722 0 3.813 1.12 3.839 2.952.025 1.632-.832 3.18-3.839 3.18H679.2v-6.132ZM722.791 547.048h-6.759v17.024h-2.812v-17.024h-6.755v-2.521h16.326v2.521ZM751.899 548.827c-1.66-1.573-3.258-2.034-4.583-2.034-1.804 0-3.094.943-3.094 2.319 0 3.752 8.452 3.698 8.452 9.916 0 3.065-2.316 5.297-5.474 5.297-2.121 0-3.838-.569-5.469-1.808v-3.55c1.429 1.833 3.237 2.837 5.16 2.837 2.178 0 3.179-1.375 3.179-2.462 0-4.044-8.447-4.498-8.447-9.856 0-3.183 2.34-5.214 5.919-5.214 1.495 0 2.985.458 4.357 1.369v3.186ZM818.507 460.479h-.346c-.068.144-.202.166-.299.166-.191 0-.317-.133-.641-.277a2.298 2.298 0 0 0-.922-.177c-1.145 0-2.106.872-2.106 2.071 0 1.512 1.483 2.013 2.168 2.268.72.263 1.479.49 1.479 1.207 0 .54-.45 1.296-1.541 1.296-.767 0-1.634-.529-2.023-1.347h-.4l.112 1.79h.317c0-.011.01-.022.01-.033a.352.352 0 0 1 .328-.194c.166 0 .338.054.583.122.306.094.684.206 1.217.206 1.534 0 2.546-1.063 2.546-2.319 0-1.516-1.235-1.956-2.585-2.445-.299-.101-1.178-.389-1.178-1.095 0-.461.328-.983 1.113-.983.626 0 1.494.267 1.772 1.412h.396v-1.668ZM819.857 460.307v.368c.371 0 .572.306.572.839v4.897c0 .122 0 .684-.572.684v.371h1.71v-.371c-.237 0-.576-.112-.576-.674v-5.296h.04l2.315 6.341h.713l2.251-6.179h.072v5.239c0 .14-.022.508-.512.569v.371h2.546v-.371c-.133-.018-.501-.112-.501-.569v-5.268c0-.112.008-.511.501-.583v-.368h-2.333l-1.858 5.103h-.044l-1.858-5.103h-2.466Z"/></g></svg>

<?xml version="1.0" encoding="UTF-8" standalone="no"?>
<!DOCTYPE svg PUBLIC "-//W3C//DTD SVG 1.1//EN" "http://www.w3.org/Graphics/SVG/1.1/DTD/svg11.dtd">
<!-- Created with Vectornator (http://vectornator.io/) -->
<svg height="100%" stroke-miterlimit="10" style="fill-rule:nonzero;clip-rule:evenodd;stroke-linecap:round;stroke-linejoin:round;" version="1.1" viewBox="0 0 1024 1024" width="100%" xml:space="preserve" xmlns="http://www.w3.org/2000/svg" xmlns:vectornator="http://vectornator.io" xmlns:xlink="http://www.w3.org/1999/xlink">
<defs>
<filter color-interpolation-filters="sRGB" filterUnits="userSpaceOnUse" height="126.378" id="Filter" width="654.56" x="195.584" y="459.675">
<feDropShadow dx="12.7279" dy="12.7279" flood-color="#ffffff" flood-opacity="1" in="SourceGraphic" result="Shadow" stdDeviation="4.5"/>
</filter>
</defs>
<g id="Untitled" vectornator:layerName="Untitled">
<g filter="url(#Filter)" vectornator:shadowAngle="0.785398" vectornator:shadowColor="#ffffff" vectornator:shadowOffset="18" vectornator:shadowOpacity="1" vectornator:shadowRadius="9">
<path d="M717.259 492.373C724.299 492.964 725.991 494.825 728.724 499.07L734.539 509.653C737.575 514.021 740.135 516.369 746.08 516.369L746.08 517.971L738.792 517.971C735.497 517.971 729.178 518.378 725.649 514.057L718.055 501.526C715.39 497.832 714.587 494.836 705.737 494.836L691.946 494.836L691.96 511.724C691.96 514.712 693.271 515.85 695.705 515.85L697.033 515.85L697.033 517.971L676.826 517.971L676.826 515.85L678.147 515.85C680.578 515.85 681.892 514.712 681.892 511.724L681.892 467.189C681.892 464.197 680.578 463.055 678.147 463.055L676.826 463.055L676.826 460.938L710.518 460.938C730.074 460.938 735.537 468.943 735.537 476.641C735.537 485.38 728.645 490.497 717.259 492.373M691.946 465.576L691.946 489.093L707.087 489.103C719.063 489.103 724.695 484.631 724.695 477.206C724.695 469.915 719.211 465.576 706.784 465.576L691.946 465.576Z" fill="#000000" fill-rule="evenodd" opacity="1" stroke="none"/>
<path d="M800.207 467.196C800.207 464.196 801.511 463.062 803.952 463.062L805.281 463.062L805.281 460.945L785.055 460.945L785.055 463.062L786.38 463.062C788.818 463.062 790.129 464.196 790.129 467.196L790.129 511.723C790.129 514.712 788.818 515.85 786.38 515.85L785.055 515.85L785.055 517.971L805.281 517.971L805.281 515.85L803.952 515.85C801.518 515.85 800.207 514.712 800.207 511.723L800.207 467.196Z" fill="#000000" fill-rule="evenodd" opacity="1" stroke="none"/>
<path d="M231.617 490.736C244.141 490.736 249.369 495.857 249.369 502.018C249.369 507.754 245.559 511.603 231.311 511.603L210.733 511.603L210.733 490.736L231.617 490.736ZM210.733 465.934L227.519 465.934C240.083 465.934 244.306 468.66 244.306 474.648C244.306 480.705 240.637 485.339 226.932 485.339L210.675 485.335L210.733 465.934ZM200.658 511.722C200.658 514.71 199.343 515.852 196.909 515.852L195.584 515.852L195.584 517.969L235.531 517.969C251.468 517.969 260.585 512.802 260.585 501.866C260.585 493.671 255.422 488.738 242.581 487.168C248.786 485.548 254.284 481.245 254.284 474.572C254.284 464.883 244.612 460.94 231.772 460.94L195.584 460.94L195.584 463.057L196.909 463.057C199.343 463.057 200.658 464.199 200.658 467.191L200.658 511.722Z" fill="#000000" fill-rule="evenodd" opacity="1" stroke="none"/>
<path d="M410.449 460.939L410.449 463.056L409.124 463.056C406.693 463.056 405.379 464.197 405.379 467.189L405.386 511.648L434.228 511.656C438.981 511.458 442.715 508.948 444.879 505.509L446.86 506.254L440.969 518L390.288 517.971L390.288 515.85L391.613 515.85C394.047 515.85 395.358 514.713 395.358 511.724L395.358 467.189C395.358 464.197 394.047 463.056 391.613 463.056L390.288 463.056L390.288 460.939L410.449 460.939Z" fill="#000000" fill-rule="evenodd" opacity="1" stroke="none"/>
<path d="M357.835 460.945L357.835 463.063L356.51 463.063C353.546 463.063 353.208 464.611 351.908 467.02L325.795 517.971L317.423 517.971L291.015 467.034C289.711 464.622 289.362 463.063 286.395 463.063L285.077 463.063L285.077 460.945L305.998 460.938L305.998 463.055L304.683 463.055C301.893 463.055 300.809 464.964 302.091 467.51L323.472 508.677L344.548 467.51C345.833 464.964 344.76 463.055 341.97 463.055L340.652 463.055L340.652 460.938L357.835 460.945Z" fill="#000000" fill-rule="evenodd" opacity="1" stroke="none"/>
<path d="M546.788 490.851L546.788 492.968L544.462 492.968C542.035 492.968 540.724 494.106 540.724 497.105L540.728 507.67C537.167 513.6 525.792 519.945 508.429 519.945C483.817 519.945 468.132 506.338 468.132 489.558C468.132 475.698 482.892 459.675 508.036 459.675C522.231 459.675 532.601 464.63 535.485 466.538C535.485 466.747 538.542 479.249 538.535 479.274C538.528 479.303 536.36 480.084 536.36 480.084C536.346 480.091 529.782 464.424 509.25 464.356C491.545 464.291 479.471 477.096 479.471 489.59C479.471 503.378 491.372 514.731 509.25 514.666C520.419 514.619 530.999 508.844 530.966 504.652L530.991 497.105C530.991 494.106 529.688 492.968 527.25 492.968L524.935 492.968L524.935 490.851L546.788 490.851Z" fill="#000000" fill-rule="evenodd" opacity="1" stroke="none"/>
<path d="M644.488 515.85L644.488 517.971L623.358 517.971L623.358 515.85L624.68 515.85C627.463 515.85 628.543 513.956 627.251 511.414L622.314 502.628L588.719 502.628L584.142 511.414C582.856 513.956 583.922 515.85 586.713 515.85L588.027 515.85L588.016 517.971L570.517 517.971L570.517 515.85L571.831 515.85C573.912 515.85 574.884 515.094 576.076 512.865L603.424 460.993L611.108 460.993L638.341 511.839C638.553 512.203 638.737 512.545 638.931 512.858C640.116 515.091 641.085 515.85 643.159 515.85L644.488 515.85ZM619.257 496.277L605.43 469.544L605.412 469.584L592.031 496.277L619.257 496.277Z" fill="#000000" fill-rule="evenodd" opacity="1" stroke="none"/>
<path d="M264.262 564.071L261.453 564.071L261.453 555.559L250.51 555.559L250.51 564.071L247.698 564.071L247.698 544.526L250.51 544.526L250.51 553.038L261.453 553.038L261.453 544.526L264.262 544.526L264.262 564.071Z" fill="#000000" fill-rule="evenodd" opacity="1" stroke="none"/>
<path d="M284.917 554.299C284.917 559.599 288.957 564.323 295.345 564.323C301.963 564.323 305.92 559.567 305.92 554.299C305.92 548.854 301.851 544.274 295.406 544.274C289.069 544.274 284.917 548.883 284.917 554.299M287.812 554.299C287.812 549.999 291.049 546.852 295.406 546.852C299.785 546.852 303.029 549.999 303.029 554.299C303.029 558.569 299.785 561.745 295.406 561.745C291.049 561.745 287.812 558.569 287.812 554.299" fill="#000000" fill-rule="evenodd" opacity="1" stroke="none"/>
<path d="M339.342 547.048L332.579 547.048L332.579 564.072L329.771 564.072L329.771 547.048L323.005 547.048L323.005 544.527L339.342 544.527L339.342 547.048Z" fill="#000000" fill-rule="evenodd" opacity="1" stroke="none"/>
<path d="M370.254 547.048L361.976 547.048L361.976 552.949L369.97 552.949L369.97 555.47L361.976 555.47L361.976 561.548L370.51 561.548L370.51 564.072L359.164 564.072L359.164 544.527L370.254 544.527L370.254 547.048Z" fill="#000000" fill-rule="evenodd" opacity="1" stroke="none"/>
<path d="M393.464 561.55L402.29 561.55L402.29 564.07L390.659 564.07L390.659 544.525L393.464 544.525L393.464 561.55Z" fill="#000000" fill-rule="evenodd" opacity="1" stroke="none"/>
<path d="M431.197 548.827C429.537 547.254 427.931 546.793 426.613 546.793C424.806 546.793 423.517 547.736 423.517 549.112C423.517 552.864 431.968 552.81 431.968 559.028C431.968 562.093 429.652 564.325 426.498 564.325C424.374 564.325 422.663 563.756 421.025 562.517L421.025 558.967C422.462 560.8 424.269 561.804 426.181 561.804C428.36 561.804 429.368 560.429 429.368 559.342C429.368 555.298 420.917 554.844 420.917 549.486C420.917 546.303 423.261 544.272 426.847 544.272C428.331 544.272 429.818 544.73 431.197 545.641L431.197 548.827Z" fill="#000000" fill-rule="evenodd" opacity="1" stroke="none"/>
<path d="M481.988 549.14C481.988 548.082 482.906 547.271 484.112 547.271C485.402 547.271 486.345 548.136 486.345 549.284C486.345 550.289 485.888 551.142 483.796 552.467C482.964 551.661 481.988 550.343 481.988 549.14M490.216 554.354C489.787 555.326 488.927 556.705 488.124 557.505L485.369 554.354C487.893 552.579 488.955 551.034 488.955 549.14C488.955 546.764 487.011 544.898 484.256 544.898C481.217 544.898 479.244 546.677 479.244 549.396C479.244 551.063 480.299 552.727 481.451 553.926C478.726 555.503 476.839 557.336 476.839 559.683C476.839 562.29 479.097 564.325 481.765 564.325C483.54 564.325 485.517 563.612 487.951 561.401L490.187 564.069L493.795 564.069L489.845 559.478C491.3 557.847 492.481 555.931 493.024 554.354L490.216 554.354ZM486.233 559.456C484.89 560.8 483.482 561.747 482.049 561.747C480.789 561.747 479.73 560.8 479.644 559.683C479.644 558.167 480.872 557.163 483.05 555.787L486.233 559.456Z" fill="#000000" fill-rule="evenodd" opacity="1" stroke="none"/>
<path d="M539.291 544.526L539.291 564.072L542.099 564.072L542.099 555.588L543.27 555.588C544.703 555.588 545.88 556.045 548.462 560.053L551.033 564.072L554.385 564.072C553.046 562.206 552.563 561.551 551.724 560.201C550.241 557.767 549.15 555.959 547.367 554.785C549.463 553.957 550.633 552.265 550.633 550C550.633 546.619 548.174 544.526 544.22 544.526L539.291 544.526ZM542.099 546.932L543.903 546.932C546.626 546.932 547.717 548.052 547.746 549.884C547.771 551.516 546.907 553.064 543.903 553.064L542.099 553.064L542.099 546.932Z" fill="#000000" fill-rule="evenodd" opacity="1" stroke="none"/>
<path d="M584.821 547.048L576.54 547.048L576.54 552.949L584.533 552.949L584.533 555.47L576.54 555.47L576.54 561.548L585.073 561.548L585.073 564.072L573.735 564.072L573.735 544.527L584.821 544.527L584.821 547.048Z" fill="#000000" fill-rule="evenodd" opacity="1" stroke="none"/>
<path d="M614.531 548.827C612.875 547.254 611.262 546.793 609.947 546.793C608.143 546.793 606.854 547.736 606.854 549.112C606.854 552.864 615.309 552.81 615.309 559.028C615.309 562.093 612.979 564.325 609.832 564.325C607.715 564.325 605.997 563.756 604.366 562.517L604.366 558.967C605.792 560.8 607.596 561.804 609.512 561.804C611.694 561.804 612.698 560.429 612.698 559.342C612.698 555.298 604.247 554.844 604.247 549.486C604.247 546.303 606.599 544.272 610.178 544.272C611.665 544.272 613.156 544.73 614.531 545.641L614.531 548.827Z" fill="#000000" fill-rule="evenodd" opacity="1" stroke="none"/>
<path d="M634.705 554.299C634.705 559.599 638.745 564.323 645.133 564.323C651.751 564.323 655.708 559.567 655.708 554.299C655.708 548.854 651.632 544.274 645.19 544.274C638.857 544.274 634.705 548.883 634.705 554.299M637.6 554.299C637.6 549.999 640.833 546.852 645.19 546.852C649.576 546.852 652.813 549.999 652.813 554.299C652.813 558.569 649.576 561.745 645.19 561.745C640.833 561.745 637.6 558.569 637.6 554.299" fill="#000000" fill-rule="evenodd" opacity="1" stroke="none"/>
<path d="M676.388 544.526L676.388 564.072L679.2 564.072L679.2 555.588L680.374 555.588C681.811 555.588 682.985 556.045 685.559 560.053L688.144 564.072L691.493 564.072C690.143 562.206 689.657 561.551 688.829 560.201C687.341 557.767 686.247 555.959 684.472 554.785C686.564 553.957 687.734 552.265 687.734 550C687.734 546.619 685.271 544.526 681.325 544.526L676.388 544.526ZM679.2 546.932L681.004 546.932C683.726 546.932 684.817 548.052 684.843 549.884C684.868 551.516 684.011 553.064 681.004 553.064L679.2 553.064L679.2 546.932Z" fill="#000000" fill-rule="evenodd" opacity="1" stroke="none"/>
<path d="M722.791 547.048L716.032 547.048L716.032 564.072L713.22 564.072L713.22 547.048L706.465 547.048L706.465 544.527L722.791 544.527L722.791 547.048Z" fill="#000000" fill-rule="evenodd" opacity="1" stroke="none"/>
<path d="M751.899 548.827C750.239 547.254 748.641 546.793 747.316 546.793C745.512 546.793 744.222 547.736 744.222 549.112C744.222 552.864 752.674 552.81 752.674 559.028C752.674 562.093 750.358 564.325 747.2 564.325C745.079 564.325 743.362 563.756 741.731 562.517L741.731 558.967C743.16 560.8 744.968 561.804 746.891 561.804C749.069 561.804 750.07 560.429 750.07 559.342C750.07 555.298 741.623 554.844 741.623 549.486C741.623 546.303 743.963 544.272 747.542 544.272C749.037 544.272 750.527 544.73 751.899 545.641L751.899 548.827Z" fill="#000000" fill-rule="evenodd" opacity="1" stroke="none"/>
<path d="M818.507 460.479L818.161 460.479C818.093 460.623 817.959 460.645 817.862 460.645C817.671 460.645 817.545 460.512 817.221 460.368C816.984 460.267 816.688 460.191 816.299 460.191C815.154 460.191 814.193 461.063 814.193 462.262C814.193 463.774 815.676 464.275 816.361 464.53C817.081 464.793 817.84 465.02 817.84 465.737C817.84 466.277 817.39 467.033 816.299 467.033C815.532 467.033 814.665 466.504 814.276 465.686L813.876 465.686L813.988 467.476L814.305 467.476C814.305 467.465 814.315 467.454 814.315 467.443C814.348 467.364 814.459 467.249 814.643 467.249C814.809 467.249 814.981 467.303 815.226 467.371C815.532 467.465 815.91 467.577 816.443 467.577C817.977 467.577 818.989 466.514 818.989 465.258C818.989 463.742 817.754 463.302 816.404 462.813C816.105 462.712 815.226 462.424 815.226 461.718C815.226 461.257 815.554 460.735 816.339 460.735C816.965 460.735 817.833 461.002 818.111 462.147L818.507 462.147L818.507 460.479Z" fill="#000000" fill-rule="evenodd" opacity="1" stroke="none"/>
<path d="M819.857 460.307L819.857 460.675C820.228 460.675 820.429 460.981 820.429 461.514L820.429 466.411C820.429 466.533 820.429 467.095 819.857 467.095L819.857 467.466L821.567 467.466L821.567 467.095C821.33 467.095 820.991 466.983 820.991 466.421L820.991 461.125L821.031 461.125L823.346 467.466L824.059 467.466L826.31 461.287L826.382 461.287L826.382 466.526C826.382 466.666 826.36 467.034 825.87 467.095L825.87 467.466L828.416 467.466L828.416 467.095C828.283 467.077 827.915 466.983 827.915 466.526L827.915 461.258C827.915 461.146 827.923 460.747 828.416 460.675L828.416 460.307L826.083 460.307L824.225 465.41L824.181 465.41L822.323 460.307L819.857 460.307Z" fill="#000000" fill-rule="evenodd" opacity="1" stroke="none"/>
</g>
</g>
</svg>
